public/images/Phone logo.svg

<svg fill="none" height="28" viewBox="0 0 28 28" width="28" xmlns="http://www.w3.org/2000/svg"><path d="m28 14c0 7.732-6.268 14-14 14-7.73199 0-14-6.268-14-14 0-7.73199 6.26801-14 14-14 7.732 0 14 6.26801 14 14z" fill="#f5ecd5"/><path d="m10.5184 7.00007c.3415-.00329.6727.11759.9317.33984.2588.22221.4277.53078.4756.86816.0891.67447.2548 1.33723.4931 1.97463l.0567.1924c.043.1951.044.3978.0019.5947-.0561.2627-.1858.5043-.375.6953l-.8945.8916c1.002 1.7588 2.4613 3.2157 4.2236 4.2158l.8936-.8926c.1913-.1888.4331-.3189.6963-.375.2631-.056.5372-.0358.789.0586.6387.2379 1.3027.4033 1.9785.4922.3417.0482.6538.2198.877.4825.2232.2628.3425.5989.334.9433v2.1074c.0008.1957-.0396.3901-.1182.5694l-.0654.1308c-.0722.1269-.1644.2418-.2725.3408l-.1133.0938c-.1175.087-.2484.1551-.3877.2021l-.1416.0401c-.1427.0321-.2901.0415-.4365.0283-2.1658-.2349-4.2463-.9733-6.0742-2.1562-1.7008-1.0787-3.1429-2.5185-4.22363-4.2159-1.11527-1.7182-1.83626-3.6593-2.11231-5.68453l-.04882-.40625c-.01753-.19401.00515-.3896.06738-.57422.06238-.18485.16317-.35497.29492-.49903.13172-.14401.292-.25908.4707-.33789.17871-.07878.37203-.1199.56739-.12011z" fill="#587a33"/></svg>

<svg width="28" height="28" viewBox="0 0 28 28" fill="none" xmlns="http://www.w3.org/2000/svg">
<path d="M28 14C28 21.732 21.732 28 14 28C6.26801 28 0 21.732 0 14C0 6.26801 6.26801 0 14 0C21.732 0 28 6.26801 28 14Z" fill="#F5ECD5"/>
<path d="M10.5184 7.00007C10.8599 6.99678 11.1911 7.11766 11.4501 7.33991C11.7089 7.56212 11.8778 7.87069 11.9257 8.20807C12.0148 8.88254 12.1805 9.5453 12.4188 10.1827L12.4755 10.3751C12.5185 10.5702 12.5195 10.7729 12.4774 10.9698C12.4213 11.2325 12.2916 11.4741 12.1024 11.6651L11.2079 12.5567C12.2099 14.3155 13.6692 15.7724 15.4315 16.7725L16.3251 15.8799C16.5164 15.6911 16.7582 15.561 17.0214 15.5049C17.2845 15.4489 17.5586 15.4691 17.8104 15.5635C18.4491 15.8014 19.1131 15.9668 19.7889 16.0557C20.1306 16.1039 20.4427 16.2755 20.6659 16.5382C20.8891 16.801 21.0084 17.1371 20.9999 17.4815V19.5889C21.0007 19.7846 20.9603 19.979 20.8817 20.1583L20.8163 20.2891C20.7441 20.416 20.6519 20.5309 20.5438 20.6299L20.4305 20.7237C20.313 20.8107 20.1821 20.8788 20.0428 20.9258L19.9012 20.9659C19.7585 20.998 19.6111 21.0074 19.4647 20.9942C17.2989 20.7593 15.2184 20.0209 13.3905 18.838C11.6897 17.7593 10.2476 16.3195 9.16687 14.6221C8.0516 12.9039 7.33061 10.9628 7.05456 8.93757L7.00574 8.53132C6.98821 8.33731 7.01089 8.14172 7.07312 7.9571C7.1355 7.77225 7.23629 7.60213 7.36804 7.45807C7.49976 7.31406 7.66004 7.19899 7.83874 7.12018C8.01745 7.0414 8.21077 7.00028 8.40613 7.00007H10.5184Z" fill="#587A33"/>
</svg>
